!!! OTL: Berkowitz369
!!! Chapter: 1
!!! Section: III
!!! Page: 91
!!! Mode: 
!!! Encoder: DJB
**kern
*staff1
*I"Piano
=1-
*clefF4
*k[]
*a:
*M3/4
8A\L
8B\J
8c\L
8G#\J
8A\L
8F\J
=2
4.E\
8BB/
8C\L
8F\J
=3
4.E\
8AA/
8BB/L
8D/J
=4
4.C/
8E\
8A\L
8B\J
=5
8c\L
8G#\J
8A\L
8c\J
8B\L
8Gn\J
=6
4.E\
8F#\
8G\L
8E\J
=7
!!linebreak:original
8BB/L
8C#/J
8D#\L
8A\J
8G\L
8F#\J
=8
4E\
8r
8G\
8E\L
8D\J
=9
4C/
8r
8G\
8E\L
8D\J
=10
4C#/
8r
8B-\
8A\L
8G\J
=11
8F\L
8G\J
8A\L
8AA\J
8BB/L
8C#/J
=12
4D\
8r
8F\
8D/L
8C/J
=13
4BB/
8r
8A\
8G\L
8F\J
=14
!!linebreak:original
8E\L
8F\J
4G\
4c\
=15
4G#\
4A\
[4E\
=16
4E\]
4F\
4GG#/
=17
4AA/
2r
==
*-
